packages/Snapp/src/QRCodeIcon/index.svg

<svg viewBox="0 0 24 24" xmlns="http://www.w3.org/2000/svg" fill="currentColor" focusable="false">
  <path d="M9 9h2v2H5V9h2V7h2v2zm10 12h-6v-4h2v2h4v2zm-4-4v-4h6v6h-2v-4h-2v2h-2zm0-12v4h4V5h-4zm-2-2h8v8h-8V3zm3 3h2v2h-2V6zM5 15v4h4v-4H5zm-2-2h8v8H3v-8zm3 3h2v2H6v-2zM9 5h2v2H9V5zM5 5v2H3V3h6v2H5z" fill="#22A958"/>
</svg>

<?xml version="1.0" encoding="UTF-8"?>
<svg width="24px" height="24px" viewBox="0 0 24 24" version="1.1" xmlns="http://www.w3.org/2000/svg" xmlns:xlink="http://www.w3.org/1999/xlink">
    <title>Icons/24/QR_Code</title>
    <g id="Icons/24/QR_Code" stroke="none" stroke-width="1" fill="none" fill-rule="evenodd">
        <rect id="Container" fill-rule="nonzero" x="0" y="0" width="24" height="24"></rect>
        <path d="M9,9 L11,9 L11,11 L5,11 L5,9 L7,9 L7,7 L9,7 L9,9 Z M19,21 L13,21 L13,17 L15,17 L15,19 L19,19 L19,21 Z M15,17 L15,13 L21,13 L21,19 L19,19 L19,15 L17,15 L17,17 L15,17 Z M15,5 L15,9 L19,9 L19,5 L15,5 Z M13,3 L21,3 L21,11 L13,11 L13,3 Z M16,6 L18,6 L18,8 L16,8 L16,6 Z M5,15 L5,19 L9,19 L9,15 L5,15 Z M3,13 L11,13 L11,21 L3,21 L3,13 Z M6,16 L8,16 L8,18 L6,18 L6,16 Z M9,5 L11,5 L11,7 L9,7 L9,5 Z M5,5 L5,7 L3,7 L3,3 L9,3 L9,5 L5,5 Z" id="Shape" fill="#22A958" fill-rule="nonzero"></path>
    </g>
</svg>
